X: 40872
T: Trial Of Jim Kelly, The
R: reel
M: 4/4
K: Dmajor
|:D2FE FAAB|dafd Beef|d2fd BddB|AdFD E3F|
D2FE FAAB|dafd Beef|bafd BedB|AFEF (DD3):|
|:d B ~B2 ABdf|af ~f2 bf ~f2|dB ~B2 ABdA|BdAB FEEF|
d B ~B2 ABdf|af ~f2 bf ~f2|dB ~B2 ABdA|BdAB FEEF:|

